X: 4
T: Andy De Jarlis'
R: jig
M: 6/8
L: 1/8
K: Dmaj
| d2e |: fef def | gfg B3 | efe e2d |cBA a2g | | fef def | gfg B3 | efe ABc | df~e d2 z :||: (DFA) (DFA) | (DFA) (B2 A) | (DFA) (DFA) | (G~FG) E2 F || (DFA) (DFA) | (DFA) (B2 g) | ~fed ABc | dfe d2 z :||: (DFA) (DFA) | (DFA) (B2 A) | (DFA) (DFA) | ^B,EG AGE || (DFA) (DFA) | (DFA) (B2 g) | ~fed ABc | dfe d2 z :|


Tune 838	Setting 13997

